X:1911
T:Bourrée de Veyssiére
S:Les Brayauds
M:3/8
L:1/16
K:C
ab|c'2bc'ba|g2e2g2|f2dBdf|e2c2ab|\
c'2bc'ba|g2e2g2|f2d2B2|c4:|
|:G2|cBcdef|g2e2g2|f2dBdf|e2c2G2|\
cBcdef|g2e2g2|f2d2B2|c4:|


